FINK
CUT[DAS MAEDCHEN ICH SAH]
REG[Europa, Mitteleuropa, Deutschland]
KEY[F0034  16  A 3/4]
MEL[3_  3__2_.31_3_  3__2_.31__
    2__2_.1-7_.1  2_1_-7_-6_-5_
    3_  3__2_.31_3_  3__2_.31__
    2__2_.1-7_.2  2__1_0_0_
    5_  5__5_.55_5_  4__6_.54_.
    3  2_3_4_3_4_2_  3_4_5_.43_.
    2  1_3_3_3_3_3_  2_3_4_3_2_
    1_  2_3_2_1_-7_2_  2__1_0_0_ //] >>
FCT[Liebes - Lied, Hochzeit; Tanz - Lied]
